X:45
T:Tall Poppies
R:Reel
% 32-bar Reels
C:Pete Mac 1989
O:England
S:https://pghardy.net/tunebooks/#petemac
F:https://pghardy.net/tunebooks/pgh_pete_mac_tunebook.abc
F:https://pghardy.net/tunebooks/pgh_pete_mac_tunebook.pdf
Z:Pete Mac Tunebook 2023 (see https://pghardy.net/tunebooks/).
Z:Creative Commons CC0 (Public Domain) licenced.
M:4/4
L:1/8
Q:1/4=200
K:G
BA|"G"G2 B2 B2 AG|"D"F2 A2 A2 BA|"G"G2 B2 B2 AG|"D"A6 d2|"C"e3 f g2 fe|"G"d2 B2 d2 g2|"D7"f2 d2 c2 A2|"G"G6 BA|
"G"G2 B4 AG|"D"F2 A4 BA|"G"G2 B4 AG|"D"A6 d2|"C"e3 f g2 fe|"G"d2 B2 d2 g2|"D7"f2 d2 c2 A2|"G"G6 d2||
"G"G2 GG B2 d2|"G"e2 d4 B2|e2 d4 B2|"D"A6 d2|"C"e2 c4 e2|"G"d2 B4 g2|"C"e2 c2 "D7"A2 F2|"G"G6 DE|
"G"G2 GG B2 d2|e2 dd d2 B2|e2 dd d2 B2|"D"A6 d2|"C"e2 cc c2 e2|"G"d2 BB B2 g2|"D7"d2 d2 e2 f2|"G"g6|]

% This tunebook contains tunes written or extended by Pete Mac, who wishes 
% them to be freely used. Pete says: "I play piano accordion, melodeon and 
% English Concertina. I ran a folk dance and barn dance band for 40 years, in 
% Cambridgeshire and then in Devon where I now live. % I wrote these tunes for 
% use in the bands, and am pleased if others play them. I still lead bands and 
% workshops occasionally, mostly in the Camping and Caravanning Club 'Folk 
% Group' which has been a lifetime involvement, and of which I am a founder 
% member."  
% The tunes (written between 1988 and 2006) are released under a Creative 
% Commons Zero licence - CC0 1.0. To view a copy of this license, visit 
% http://creativecommons.org/publicdomain/zero/1.0. 
% Through this licence, the author has dedicated the work to the public domain 
% by waiving all of his rights worldwide under copyright law, including all 
% related and neighboring rights, to the extent allowed by law.  
% You can copy, modify, distribute and perform these tunes, even for 
% commercial purposes, all without asking permission. 
% Editing, layout and publishing of this Tunebook and its ABC music is by Paul 
% Hardy (paul@paulhardy.net), who releases his assistance work under the same 
% CC0 1.0 licence. See https://pghardy.net/tunebooks/ for downloads of this 
% and more of Paul's tunebooks.
% Original tunebook of 19 October 2023. This version of 8 November 2023.